X:1
T:Title
%%score { 1 | 2 }
L:1/8
M:4/4
K:Bb
V:1 treble nm="Grand Piano"
V:2 bass 
V:1
 z4 z2[Q:1/4=88] D>[CE] | [DF]<[Dd] [Fd]>c BFDE | %2
[M:9/8] [DF][DB][Ec]- [Ec]/[Fd]/ [Fc]2- [Fc][Fd]>[Fc] |[M:4/4] [GB]>[GB] c>B GB F>F | %4
[M:7/8] A>AG A [DB]3 |[M:1/4] D>[CE] |[M:4/4] [DF] [Fd]3 G B3 | A<B c>d c2 F2 | G B3 A<B c>d | %9
[M:3/4] [Ec]2 [DB]4 |] %10
V:2
 z4 z2 [B,,F,]>[B,,F,] | [B,,B,]<[B,,F,] [D,B,]>[F,A,E] [B,D][B,D][F,B,][F,A,C] | %2
[M:9/8] [B,,B,][B,,B,][B,,F,]- [B,,F,]/[B,,B,]/ [F,A,]2- [F,A,][D,A,]>[D,A,] | %3
[M:4/4] [E,G,]>[E,B,][K:treble] [G,B,E]>[G,B,E] [B,E][B,G] [B,D]>[K:bass][B,D] | %4
[M:7/8] [F,CE]>[F,CE][F,B,E] [F,E] [B,,F,]3 |[M:1/4] [B,,F,]>[B,,F,] | %6
[M:4/4] [B,,B,] [B,,B,]3 [E,B,E] [G,B,E]3 | [F,CE]<[F,B,E] [F,A,E]>[F,A,E] [F,A,E]2 [F,E]2 | %8
 [E,B,E] [E,G,E]3 [F,CE]<[F,B,E] [F,A,E]>[F,E] |[M:3/4] [B,,F,]2 [B,,F,]4 |] %10

